X:1
T: 59th Street Bridge Song(Feelin' Groovy)
M:4/4
L:1/8
K:Bb
 z2 G F- F3 D| E2 F D- D4| z B,G E F2 D F-| F F2 B- B2 F2| z2 GE F3 D|\
 E F2 D- D4| z2 G3.99999962500005/5.99999925000009 G3.99999962500005/5.99999925000009 E3.99999962500005/5.99999925000009 F2 D F-|\
 F F2 d2| B3-| B8-| B8| z GGF-F D3| z E2 CD F3| z B,G E F2| D F-| F F2 B- B2 F2|\
 z2 GE F F2 E-| E3 F D4| z2 GE F| B3| B B2 d2 B3-| B8-| B6 F2| G G2 E F2 D2|\
 EE EC| D2 z B,| d21.333334/16 c21.333334/16 B21.333334/16 d21.333334/16 c21.333334/16 B21.333334/16|\
 B21.333334/16 F21.333334/16 E21.333334/16 D21.333334/16 E21.333334/16 F21.333334/16|\
 G21.333334/16 E21.333334/16 G21.333334/16 B21.333334/16 F21.333334/16 B21.333334/16|\
 d21.333334/16 c21.333334/16 B21.333334/16 F4| z G2 E F2 D2| z F2 F d4|\
 B8-| B8|
